{"compressionlevel":-1,"height":33,"width":45,"infinite":false,"orientation":"orthogonal","renderorder":"right-down","tiledversion":"1.11.0","version":"1.10","tileheight":32,"tilewidth":32,"type":"map","worldWidth":1440,"worldHeight":1056,"properties":[{"name":"mapId","type":"string","value":"fruitville_pike"},{"name":"tileContract","type":"string","value":"32px-grid"}],"layers":[{"id":1,"name":"ground","type":"imagelayer","image":"fruitville-pike-master-v1.png","imagewidth":1440,"imageheight":1056,"opacity":1,"visible":true,"x":0,"y":0},{"id":2,"name":"collision-grid","type":"tilelayer","width":45,"height":33,"x":0,"y":0,"opacity":1,"visible":false,"data":[1,1,1,1,1,1,1,1,1,1,1,1,1,1,1,1,1,1,1,1,1,1,1,1,1,1,1,1,0,0,0,0,1,1,1,1,1,1,1,1,1,1,1,1,1,1,1,1,1,1,1,1,1,1,1,1,1,1,1,1,1,1,1,1,1,1,1,1,1,1,1,0,0,0,0,0,0,0,1,1,1,1,1,1,1,1,1,1,1,1,1,1,1,1,1,1,1,1,1,1,1,1,1,1,1,1,1,1,1,1,1,1,1,1,1,0,0,0,0,0,0,0,0,1,1,1,1,1,1,1,1,1,1,1,1,1,0,0,0,0,0,0,0,0,0,0,0,0,0,0,0,0,0,0,0,0,0,0,0,0,0,0,0,0,0,0,0,0,0,0,0,0,0,0,0,0,0,0,0,1,1,1,1,1,1,1,1,1,1,1,1,1,1,1,1,1,1,1,1,1,1,1,1,1,1,0,0,0,0,0,0,0,1,1,1,1,1,1,1,1,1,1,1,1,1,1,1,1,1,1,1,1,1,1,1,1,1,1,1,1,1,1,1,1,1,1,1,1,1,1,0,0,0,0,0,0,1,1,1,1,1,1,1,1,1,1,1,1,1,1,1,1,1,1,1,1,1,1,1,1,1,1,1,1,1,1,1,1,1,1,1,1,1,1,1,0,0,0,0,0,1,1,1,1,1,1,1,1,1,1,1,1,1,1,1,1,1,1,1,1,1,1,1,1,1,1,1,1,1,1,1,1,1,1,1,1,1,1,1,1,0,0,0,0,0,1,1,1,1,1,1,1,1,1,1,1,1,1,1,1,1,1,1,1,1,1,1,1,1,1,1,1,1,1,1,1,1,1,1,1,1,1,1,1,1,0,0,0,0,0,1,1,1,1,1,1,1,1,1,1,1,1,1,1,1,1,1,1,1,1,1,1,1,1,1,1,1,1,1,1,1,1,1,1,1,1,1,1,1,1,0,0,0,0,0,1,1,1,1,1,1,1,1,1,1,1,1,1,1,1,1,1,1,1,1,1,1,1,1,1,1,1,1,1,1,1,1,1,1,1,1,1,1,1,0,0,0,0,0,0,1,1,1,1,1,1,1,1,1,1,1,1,1,1,1,1,1,1,1,1,1,1,1,1,1,1,1,1,1,1,1,1,1,1,1,1,1,1,1,0,0,0,0,0,0,1,1,1,1,1,1,1,1,1,1,1,1,1,1,1,1,1,1,1,1,1,1,1,1,1,1,1,1,1,1,1,1,1,1,1,1,1,1,0,0,0,0,0,0,0,1,1,1,1,1,1,1,1,1,1,1,1,1,1,1,1,1,1,1,1,1,1,1,1,1,1,1,1,1,1,1,1,1,1,1,1,1,1,0,0,0,0,0,0,0,1,1,1,1,1,1,1,1,1,1,1,1,1,1,1,1,1,1,1,1,1,1,1,1,1,1,1,1,1,1,1,1,1,1,1,1,1,0,0,0,0,0,0,0,0,1,1,1,1,1,1,1,1,1,1,1,1,1,1,1,1,1,1,1,1,1,1,1,1,1,1,1,1,1,1,1,1,1,1,1,1,0,0,0,0,0,0,0,0,1,1,1,1,1,1,1,1,1,1,1,1,1,1,1,1,1,1,1,1,1,1,1,1,1,1,1,1,1,1,1,1,1,1,1,1,1,0,0,0,0,0,0,0,0,1,1,1,1,1,1,1,1,1,1,1,1,1,1,1,1,1,1,1,1,1,1,1,1,1,1,1,1,1,1,1,1,1,1,1,1,0,0,0,0,0,0,0,0,1,1,1,1,1,1,1,1,1,1,1,1,1,1,1,1,1,1,1,1,1,1,1,1,1,1,1,1,1,1,1,1,1,1,1,1,0,0,0,0,0,0,0,0,0,1,1,1,1,1,1,1,1,1,1,1,1,1,1,1,1,1,1,1,1,1,1,1,1,1,1,1,1,1,1,1,1,1,1,1,0,0,0,0,0,0,0,0,0,1,1,1,1,1,1,1,1,1,1,1,1,1,1,1,1,1,1,1,1,1,1,1,1,1,1,1,1,1,1,1,1,1,1,1,0,0,0,0,0,0,0,0,0,1,1,1,1,1,1,1,1,1,1,1,1,1,1,1,1,1,1,1,1,1,1,1,1,1,1,1,1,1,1,1,1,1,1,1,1,0,0,0,0,0,0,0,0,1,1,1,1,1,1,1,1,1,1,1,1,1,1,1,1,1,1,1,1,1,1,1,1,1,1,1,1,1,1,1,1,1,1,1,1,1,0,0,0,0,0,0,0,1,1,1,1,1,1,1,1,1,1,1,1,1,1,1,1,1,1,1,1,1,1,1,1,1,1,1,1,1,1,1,1,1,1,1,1,1,0,0,0,0,0,0,0,0,1,1,1,1,1,1,1,1,1,1,1,1,1,1,1,1,1,1,1,1,1,1,1,1,1,1,1,1,1,1,1,1,1,1,1,1,1,0,0,0,0,0,0,0,1,1,1,1,1,1,1,1,1,1,1,1,1,1,1,1,1,1,1,1,1,1,1,1,1,1,1,1,1,1,1,1,1,1,1,1,1,1,0,0,0,0,0,0,1,1,1,1,1,1,1,1,1,1,1,1,1,1,1,1,1,1,1,1,1,1,1,1,1,1,1,1,1,1,1,1,1,1,1,1,1,1,1,0,0,0,0,0,0,1,1,1,1,1,1,1,1,1,1,1,1,1,1,1,1,1,1,1,1,1,1,1,1,1,1,1,1,1,1,1,1,1,1,1,1,1,1,1,0,0,0,0,0,0,1,1,1,1,1,1,1,1,1,1,1,1,1,1,1,1,1,1,1,1,1,1,1,1,1,1,1,1,1,1,1,1,1,1,1,1,1,1,1,0,0,0,0,0,1,1,1,1,1,1,1,1,1,1,1,1,1,1,1,1,1,1,1,1,1,1,1,1,1,1,1,1,1,1,1,1,1,1,1,1,1,1,1,1,0,0,0,0,0,1,1,1,1,1,1,1,1,1,1,1,1,1,1,1,1,1,1,1,1,1,1,1,1,1,1,1,1,1,1,1,1,1,1,1,1,1,1,1,1,0,0,0,0,0,1,1,1,1,1,1,1,1,1,1,1,1,1,1,1,1,1,1,1,1,1,1,1,1,1,1,1,1,1,1,1,1,1,1,1,1,1,1,1,1,0,0,0,0,0,1,1,1,1,1,1,1,1,1,1,1,1,1,1,1,1,1,1,1,1,1,1,1,1,1,1,1,1,1,1,1,1,1,1,1,1,1,1,0,0,0,0,0,0,0,0,0,0,1,1,1,1,1,1,1,1,1,1,1,1,1,1,1,1,1,1,1,1,1]},{"id":3,"name":"solid-footprints","type":"objectgroup","draworder":"topdown","opacity":1,"visible":false,"objects":[{"id":4015,"name":"roadside_north","type":"solid-footprint","x":128,"y":128,"width":480,"height":128,"properties":[]},{"id":4016,"name":"roadside_south","type":"solid-footprint","x":1216,"y":288,"width":160,"height":160,"properties":[]}]},{"id":4,"name":"spawns","type":"objectgroup","draworder":"topdown","opacity":1,"visible":false,"objects":[{"id":4000,"name":"spawn_milton","type":"spawn","x":592,"y":976,"properties":[]},{"id":4001,"name":"spawn_bent_creek","type":"spawn","x":944,"y":80,"properties":[]}]},{"id":5,"name":"transitions","type":"objectgroup","draworder":"topdown","opacity":1,"visible":false,"objects":[{"id":4002,"name":"exit_milton","type":"transition","x":448,"y":1024,"width":320,"height":32,"properties":[{"name":"destinationMap","type":"string","value":"neighborhood"},{"name":"destinationSpawn","type":"string","value":"spawn_fruitville"}]},{"id":4003,"name":"exit_bent_creek","type":"transition","x":896,"y":0,"width":128,"height":64,"properties":[{"name":"destinationMap","type":"string","value":"bent_creek"},{"name":"destinationSpawn","type":"string","value":"spawn_gate_exterior"}]}]},{"id":6,"name":"interactions","type":"objectgroup","draworder":"topdown","opacity":1,"visible":false,"objects":[{"id":4004,"name":"crosswalk_north","type":"landmark","x":880,"y":112,"properties":[]},{"id":4005,"name":"crosswalk_south","type":"landmark","x":720,"y":592,"properties":[]},{"id":4006,"name":"bike_shoulder","type":"landmark","x":720,"y":784,"properties":[]},{"id":4007,"name":"fruitville_midpoint","type":"landmark","x":816,"y":464,"properties":[]}]},{"id":7,"name":"navigation","type":"objectgroup","draworder":"topdown","opacity":1,"visible":false,"objects":[{"id":4008,"name":"fruitville_route_00","type":"waypoint","x":592,"y":976,"properties":[]},{"id":4009,"name":"fruitville_route_01","type":"waypoint","x":592,"y":880,"properties":[]},{"id":4010,"name":"fruitville_route_02","type":"waypoint","x":624,"y":752,"properties":[]},{"id":4011,"name":"fruitville_route_03","type":"waypoint","x":720,"y":592,"properties":[]},{"id":4017,"name":"fruitville_route_04","type":"waypoint","x":816,"y":464,"properties":[]},{"id":4018,"name":"fruitville_route_05","type":"waypoint","x":880,"y":336,"properties":[]},{"id":4019,"name":"fruitville_route_06","type":"waypoint","x":880,"y":208,"properties":[]},{"id":4020,"name":"fruitville_route_07","type":"waypoint","x":880,"y":112,"properties":[]},{"id":4021,"name":"fruitville_route_08","type":"waypoint","x":944,"y":48,"properties":[]}]},{"id":8,"name":"qa-probes","type":"objectgroup","draworder":"topdown","opacity":1,"visible":false,"objects":[{"id":4012,"name":"qa_pike_milton","type":"qa-probe","x":592,"y":976,"properties":[]},{"id":4013,"name":"qa_pike_midpoint","type":"qa-probe","x":720,"y":592,"properties":[]},{"id":4014,"name":"qa_pike_bent_creek","type":"qa-probe","x":944,"y":80,"properties":[]}]}],"tilesets":[{"columns":45,"firstgid":1,"image":"fruitville-pike-master-v1.png","imageheight":1056,"imagewidth":1440,"name":"collision-grid","spacing":0,"tilecount":1485,"tileheight":32,"tilewidth":32}],"nextlayerid":9,"nextobjectid":4022}
