{"compressionlevel":-1,"height":33,"width":45,"infinite":false,"orientation":"orthogonal","renderorder":"right-down","tiledversion":"1.11.0","version":"1.10","tileheight":32,"tilewidth":32,"type":"map","worldWidth":1440,"worldHeight":1056,"properties":[{"name":"mapId","type":"string","value":"reidenbaugh"},{"name":"tileContract","type":"string","value":"32px-grid"}],"layers":[{"id":1,"name":"ground","type":"imagelayer","image":"reidenbaugh-elementary-master-v1.png","imagewidth":1440,"imageheight":1056,"opacity":1,"visible":true,"x":0,"y":0},{"id":2,"name":"collision-grid","type":"tilelayer","width":45,"height":33,"x":0,"y":0,"opacity":1,"visible":false,"data":[1,1,1,1,1,1,1,1,1,1,1,1,1,1,1,1,1,1,1,1,1,1,1,1,1,1,1,1,1,1,1,1,1,1,1,1,1,1,1,1,1,1,1,1,1,1,1,1,1,1,1,1,1,1,0,0,0,1,0,0,0,0,0,0,0,0,0,0,0,0,0,0,0,0,0,0,0,0,1,1,1,1,1,1,1,1,1,1,1,1,1,1,1,1,1,1,1,1,1,0,0,0,0,0,0,0,0,0,0,0,0,0,0,0,0,0,0,0,0,0,0,0,0,1,1,1,1,1,1,1,1,1,1,1,1,1,1,1,0,0,0,0,0,0,0,0,0,1,1,1,1,1,1,1,1,1,1,1,1,1,1,1,1,1,1,1,1,1,1,1,1,1,1,1,1,1,1,1,1,1,1,1,0,0,0,0,0,0,0,0,0,0,1,1,1,1,1,1,1,1,1,1,1,1,1,1,1,1,1,1,1,1,1,1,1,1,1,1,1,1,1,1,1,1,1,1,1,0,0,1,0,1,0,0,0,0,0,1,1,1,1,1,1,1,1,1,1,1,1,1,1,1,1,1,1,1,1,1,1,1,1,1,1,1,1,1,1,1,1,1,1,1,0,0,0,0,1,1,1,0,0,0,1,1,1,1,1,1,1,1,1,1,1,1,1,1,1,1,1,1,1,1,1,1,1,1,1,1,1,1,1,1,1,1,1,1,1,0,0,0,0,0,0,0,0,0,0,1,1,1,1,1,1,1,1,1,1,1,1,1,1,1,1,1,1,1,1,1,1,1,1,1,1,1,1,1,1,1,1,1,1,1,0,0,0,0,0,0,0,0,0,0,1,1,1,1,1,1,1,1,1,1,1,1,1,1,1,1,1,1,1,1,1,1,1,1,1,1,1,1,1,0,1,1,1,1,1,1,0,0,0,0,0,0,0,0,0,1,1,1,1,1,1,1,1,1,1,1,1,1,1,1,1,1,1,1,1,1,0,0,0,0,0,0,0,0,0,1,1,1,1,1,1,1,1,1,1,1,0,0,0,0,1,1,1,1,1,1,1,1,1,1,1,1,1,1,1,1,1,1,1,1,0,0,0,0,0,0,0,0,0,0,0,0,1,1,1,1,1,1,1,1,1,0,0,0,0,1,1,1,1,1,1,1,1,1,1,1,1,1,1,1,1,1,1,1,1,0,0,0,0,0,0,0,0,0,0,0,0,1,1,1,0,0,0,0,0,0,0,0,0,0,1,1,1,1,1,1,1,1,1,1,1,1,1,1,1,1,1,1,1,1,0,0,0,0,0,0,0,0,0,0,0,0,1,1,1,0,0,0,0,0,0,0,0,0,0,1,1,1,1,1,1,1,1,1,1,1,1,1,1,1,1,1,1,1,1,0,0,0,0,0,0,0,0,0,0,0,0,1,1,1,0,0,0,0,0,0,0,0,0,0,0,1,1,1,1,1,0,0,0,0,0,0,0,0,0,0,0,0,0,0,0,0,0,0,0,0,0,0,0,0,0,0,1,1,1,0,0,0,0,0,0,0,0,0,0,0,0,0,0,0,0,0,0,0,0,0,0,0,0,0,0,0,0,0,0,0,0,0,0,0,0,0,0,0,0,0,0,1,1,1,0,0,0,0,0,0,0,0,0,0,0,0,0,0,0,0,0,0,0,0,0,0,0,0,0,0,0,0,0,0,0,0,0,0,0,0,0,0,0,0,0,0,1,1,1,0,0,0,0,0,0,0,0,0,0,0,0,0,0,0,0,0,0,0,0,0,0,0,0,0,0,0,0,0,0,0,0,0,0,0,0,0,0,0,0,0,0,1,1,1,0,0,0,0,0,0,0,1,0,0,0,0,0,0,0,0,0,0,0,0,0,0,0,0,0,0,0,0,0,0,0,0,0,0,0,0,0,0,0,0,0,0,1,1,1,0,0,0,0,0,0,0,0,0,0,0,0,0,0,0,0,0,0,0,0,0,0,0,0,0,0,0,0,0,0,0,0,0,0,0,0,0,0,0,0,0,0,1,1,1,1,1,1,1,1,1,1,0,0,0,0,1,0,0,0,0,0,0,1,0,0,0,0,0,0,0,0,0,0,0,0,0,0,0,0,0,0,0,0,0,0,0,1,1,1,1,1,1,1,1,1,1,0,0,0,0,1,0,0,0,0,0,1,1,1,1,1,1,1,1,1,0,0,0,0,0,0,0,0,0,0,0,0,0,0,0,0,1,1,1,1,1,1,1,1,1,0,0,0,0,1,1,0,0,0,0,0,0,0,0,1,1,1,1,0,0,0,0,0,0,0,0,0,0,0,0,0,0,0,0,0,0,1,1,1,1,1,1,1,1,1,0,0,0,0,1,1,0,0,0,0,0,0,0,0,0,0,0,0,0,0,0,0,0,0,0,0,0,0,0,0,0,0,0,0,0,0,1,1,1,1,1,1,1,1,0,0,0,0,0,1,1,0,0,0,0,0,0,0,0,0,0,0,0,0,0,0,0,0,0,0,0,0,0,0,1,1,1,1,1,1,1,1,1,1,1,1,1,1,0,0,0,0,0,1,1,0,0,0,0,0,0,0,0,0,0,0,0,0,0,0,0,1,0,0,0,0,0,0,0,1,1,1,1,1,1,1,1,1,1,1,1,1,0,0,0,0,0,0,0,0,0,0,0,0,0,0,0,0,0,0,0,0,0,0,0,0,0,0,0,0,0,0,0,0,1,1,1,1,1,1,1,1,1,1,1,1,0,0,0,0,0,0,1,0,0,0,0,0,0,1,0,0,0,0,0,0,1,0,0,0,0,0,0,1,0,0,0,0,0,1,1,1,1,1,1,1,1,1,1,0,0,0,0,0,0,0,1,1,0,0,0,0,0,0,0,0,0,0,0,0,0,0,0,0,0,0,0,0,0,0,0,0,0,0,1,1,1,1,1,1,1,1,0,0,0,0,0,0,0,0,1,1,1,0,0,0,0,0,0,0,0,0,0,0,0,0,0,0,0,0,0,0,0,0,0,0,0,0,1,1,1,1,1,1,1,1,1,0,0,0,0,0,0,0,1,1,1,1,0,0,0,0,0,0,0,0,0,0,0,0,0,0,0,0,0,0,0,0,0,0,0,0,0,1,1,1,1,1,1,1,1,1,0,0,0,0,0,1,1,1,1,1,1,1,1,1,1,1,1,1,1,1,1,1,1,1,1,1,1,1,1,1,1,1,1,1,1,1,1,1,1,1,1,1,1,1,1,0,1,1,1,1,1,1,1,1,1,1,1,1,1,1,1,1,1,1,1,1,1,1,1,1,1,1,1,1,1,1,1,1,1,1,1,1,1,1,1,1,1,1,1,1]},{"id":3,"name":"solid-footprints","type":"objectgroup","draworder":"topdown","opacity":1,"visible":false,"objects":[{"id":3025,"name":"school_wing_west","type":"solid-footprint","x":384,"y":96,"width":384,"height":352,"properties":[]},{"id":3026,"name":"school_wing_east","type":"solid-footprint","x":768,"y":96,"width":256,"height":352,"properties":[]},{"id":3027,"name":"service_block","type":"solid-footprint","x":1024,"y":96,"width":288,"height":192,"properties":[]}]},{"id":4,"name":"spawns","type":"objectgroup","draworder":"topdown","opacity":1,"visible":false,"objects":[{"id":3000,"name":"spawn_stonehenge","type":"spawn","x":80,"y":976,"properties":[]}]},{"id":5,"name":"transitions","type":"objectgroup","draworder":"topdown","opacity":1,"visible":false,"objects":[{"id":3001,"name":"exit_stonehenge","type":"transition","x":0,"y":928,"width":32,"height":128,"properties":[{"name":"destinationMap","type":"string","value":"stonehenge"},{"name":"destinationSpawn","type":"string","value":"spawn_reidenbaugh"}]}]},{"id":6,"name":"interactions","type":"objectgroup","draworder":"topdown","opacity":1,"visible":false,"objects":[{"id":3002,"name":"school_front","type":"landmark","x":720,"y":496,"properties":[]},{"id":3003,"name":"bus_loop","type":"landmark","x":720,"y":656,"properties":[]},{"id":3004,"name":"visitor_parking","type":"landmark","x":720,"y":912,"properties":[]},{"id":3005,"name":"bike_rack_reidenbaugh","type":"bike_rack","x":816,"y":528,"properties":[]},{"id":3006,"name":"playground","type":"landmark","x":240,"y":240,"properties":[]},{"id":3007,"name":"basketball_court","type":"landmark","x":176,"y":496,"properties":[]},{"id":3008,"name":"athletic_field","type":"landmark","x":1232,"y":528,"properties":[]},{"id":3009,"name":"service_side","type":"landmark","x":1072,"y":304,"properties":[]},{"id":3010,"name":"ryan_finish","type":"objective","x":784,"y":624,"properties":[]},{"id":3011,"name":"ryan_post","type":"npc","x":784,"y":560,"properties":[]}]},{"id":7,"name":"navigation","type":"objectgroup","draworder":"topdown","opacity":1,"visible":false,"objects":[{"id":3012,"name":"chase_a_00","type":"waypoint","x":784,"y":624,"properties":[]},{"id":3013,"name":"chase_a_01","type":"waypoint","x":656,"y":592,"properties":[]},{"id":3014,"name":"chase_a_02","type":"waypoint","x":496,"y":560,"properties":[]},{"id":3015,"name":"chase_b_00","type":"waypoint","x":784,"y":624,"properties":[]},{"id":3016,"name":"chase_b_01","type":"waypoint","x":944,"y":624,"properties":[]},{"id":3017,"name":"chase_b_02","type":"waypoint","x":976,"y":720,"properties":[]},{"id":3018,"name":"chase_c_00","type":"waypoint","x":784,"y":624,"properties":[]},{"id":3019,"name":"chase_c_01","type":"waypoint","x":976,"y":624,"properties":[]},{"id":3020,"name":"chase_c_02","type":"waypoint","x":1104,"y":528,"properties":[]},{"id":3028,"name":"chase_a_03","type":"waypoint","x":336,"y":496,"properties":[]},{"id":3029,"name":"chase_a_04","type":"waypoint","x":304,"y":336,"properties":[]},{"id":3030,"name":"chase_a_05","type":"waypoint","x":336,"y":176,"properties":[]},{"id":3031,"name":"chase_a_06","type":"waypoint","x":336,"y":80,"properties":[]},{"id":3032,"name":"chase_b_03","type":"waypoint","x":848,"y":784,"properties":[]},{"id":3033,"name":"chase_b_04","type":"waypoint","x":688,"y":784,"properties":[]},{"id":3034,"name":"chase_b_05","type":"waypoint","x":528,"y":720,"properties":[]},{"id":3035,"name":"chase_b_06","type":"waypoint","x":592,"y":592,"properties":[]},{"id":3036,"name":"chase_c_03","type":"waypoint","x":1264,"y":464,"properties":[]},{"id":3037,"name":"chase_c_04","type":"waypoint","x":1328,"y":624,"properties":[]},{"id":3038,"name":"chase_c_05","type":"waypoint","x":1200,"y":720,"properties":[]},{"id":3039,"name":"chase_c_06","type":"waypoint","x":1008,"y":656,"properties":[]}]},{"id":8,"name":"qa-probes","type":"objectgroup","draworder":"topdown","opacity":1,"visible":false,"objects":[{"id":3021,"name":"qa_school_entrance","type":"qa-probe","x":80,"y":976,"properties":[]},{"id":3022,"name":"qa_school_front","type":"qa-probe","x":720,"y":496,"properties":[]},{"id":3023,"name":"qa_playground","type":"qa-probe","x":240,"y":240,"properties":[]},{"id":3024,"name":"qa_field","type":"qa-probe","x":1232,"y":528,"properties":[]}]}],"tilesets":[{"columns":45,"firstgid":1,"image":"reidenbaugh-elementary-master-v1.png","imageheight":1056,"imagewidth":1440,"margin":0,"name":"collision-grid","spacing":0,"tilecount":1485,"tileheight":32,"tilewidth":32}],"nextlayerid":9,"nextobjectid":3040}
