{"compressionlevel":-1,"height":33,"width":45,"infinite":false,"orientation":"orthogonal","renderorder":"right-down","tiledversion":"1.11.0","version":"1.10","tileheight":32,"tilewidth":32,"type":"map","worldWidth":1440,"worldHeight":1056,"properties":[{"name":"mapId","type":"string","value":"stonehenge"},{"name":"tileContract","type":"string","value":"32px-grid"}],"layers":[{"id":1,"name":"ground","type":"imagelayer","image":"stonehenge-master-v1.png","imagewidth":1440,"imageheight":1056,"opacity":1,"visible":true,"x":0,"y":0},{"id":2,"name":"collision-grid","type":"tilelayer","width":45,"height":33,"x":0,"y":0,"opacity":1,"visible":false,"data":[1,1,1,1,1,1,1,1,1,1,1,1,1,1,1,1,1,1,1,1,1,1,1,1,1,1,1,1,1,1,1,1,1,1,1,1,1,1,1,1,1,0,0,0,0,1,1,1,1,1,1,1,1,1,1,1,1,1,1,1,1,1,1,1,1,1,1,1,1,1,1,1,1,1,1,1,1,1,1,1,1,1,1,1,1,0,0,0,0,0,1,1,1,1,1,1,1,1,1,1,1,1,1,1,1,1,1,1,1,1,1,1,1,1,1,1,1,1,1,1,1,1,1,1,1,1,1,1,1,0,0,0,0,0,1,1,1,1,1,1,1,1,1,1,1,1,1,1,1,1,1,1,1,1,1,1,1,1,1,1,1,1,1,1,1,1,1,1,1,1,1,1,1,0,0,0,0,0,0,1,1,1,1,1,1,1,1,1,1,1,1,1,1,1,1,1,1,1,1,1,1,1,1,1,1,1,1,1,1,1,1,1,1,1,1,1,0,0,0,0,0,0,0,0,1,1,1,1,1,1,1,1,1,1,1,1,1,1,1,1,1,1,1,1,1,1,1,1,1,1,1,1,1,1,1,1,1,1,0,0,0,0,0,0,0,0,0,0,1,1,1,1,1,1,1,1,1,1,1,1,1,1,1,1,1,1,1,1,1,1,1,1,1,1,1,1,1,1,1,1,0,0,0,0,0,0,0,0,0,0,0,0,1,1,1,1,1,1,1,1,1,1,1,1,1,1,1,1,1,1,1,1,1,1,1,1,1,1,1,1,1,1,1,1,0,0,0,0,0,0,0,0,0,0,0,0,1,1,1,1,1,1,1,1,1,1,1,1,1,1,1,1,1,1,1,1,1,1,1,0,0,0,0,0,0,0,0,0,0,0,0,0,0,0,0,0,0,0,1,1,1,1,1,1,1,1,1,1,1,1,1,1,1,1,1,1,1,1,1,1,1,1,1,0,0,0,0,0,0,0,0,0,0,0,0,0,0,0,0,1,1,1,1,1,1,1,1,1,1,1,1,1,1,1,1,1,1,1,1,1,1,1,1,1,1,1,1,0,0,0,0,0,0,0,0,0,0,0,0,0,0,0,0,0,1,1,1,1,1,1,1,1,1,1,1,1,1,1,1,1,1,1,1,1,1,1,1,1,1,1,1,1,0,0,0,0,0,0,0,0,0,0,0,0,0,0,0,0,1,1,1,1,1,1,1,1,1,1,1,1,1,1,1,1,1,1,1,1,1,1,1,1,1,1,1,1,0,0,0,0,0,0,1,1,1,1,0,0,0,0,0,0,1,1,1,1,1,1,1,1,1,1,1,1,1,1,1,1,1,1,1,1,1,1,1,1,1,1,1,1,1,0,0,0,0,0,0,1,1,1,1,1,0,0,0,0,0,1,1,1,1,1,1,1,1,1,1,1,1,1,1,1,1,1,1,1,1,1,1,1,1,1,1,1,1,1,0,0,0,0,1,1,1,1,1,1,1,0,0,0,0,1,1,1,1,1,1,1,1,1,1,1,1,1,1,1,1,1,1,1,1,1,1,1,1,1,1,1,1,1,1,0,0,0,0,1,1,1,1,1,1,0,0,0,0,0,1,1,1,1,1,1,1,1,1,1,1,1,1,1,1,1,1,1,1,1,1,1,1,1,1,1,1,1,1,1,0,0,0,0,0,0,0,0,0,0,0,0,0,0,0,1,1,1,1,1,1,1,1,1,1,1,1,1,1,1,1,1,1,1,1,1,1,1,1,1,1,1,1,1,0,0,0,0,0,0,0,0,0,0,0,0,0,0,0,1,1,1,1,1,1,1,1,1,1,1,1,1,1,1,1,1,1,1,1,1,1,1,1,1,1,1,1,0,0,0,0,0,0,0,0,0,0,0,0,0,0,0,0,1,1,1,1,1,1,1,1,1,1,1,1,1,1,1,1,1,1,1,1,1,1,1,1,1,1,1,1,0,0,0,0,0,0,0,1,1,1,1,1,1,1,1,1,1,1,1,1,1,1,1,1,1,1,1,1,1,1,1,1,1,1,1,1,1,1,1,1,1,1,1,1,0,0,0,0,0,0,0,0,1,1,1,1,1,1,1,1,1,1,1,1,1,1,1,1,1,1,1,1,1,1,1,1,1,1,1,1,1,1,1,1,1,1,1,0,0,0,0,0,0,0,0,1,1,1,1,1,1,1,1,1,1,1,1,1,1,1,1,1,1,1,1,1,1,1,1,1,1,1,1,1,1,1,1,1,1,1,1,0,0,0,0,0,0,0,0,0,1,1,1,1,1,1,1,1,1,1,1,1,1,1,1,1,1,1,1,1,1,1,1,1,1,1,1,1,1,1,1,1,1,1,1,0,0,0,0,0,0,0,0,0,1,1,1,1,1,1,1,1,1,1,1,1,1,1,1,1,1,1,1,1,1,1,1,1,1,1,1,1,1,1,1,1,1,1,0,0,0,0,0,0,0,0,0,0,1,1,1,1,1,1,1,1,1,1,1,1,1,1,1,1,1,1,1,1,1,1,1,1,1,1,1,1,1,1,1,1,1,1,0,0,0,0,0,0,0,0,0,0,0,1,1,1,1,1,1,1,1,1,1,1,1,1,1,1,1,1,1,1,1,1,1,1,1,1,1,1,1,1,1,1,1,1,0,0,0,0,0,0,0,0,0,0,0,1,1,1,1,1,1,1,1,1,1,1,1,1,1,1,1,1,1,1,1,1,1,1,1,1,1,1,1,1,1,1,0,0,0,0,0,0,0,0,0,0,0,0,0,1,1,1,1,1,1,1,1,1,1,1,1,1,1,1,1,1,1,1,1,1,1,1,1,1,1,1,1,1,1,1,1,0,0,0,0,0,0,0,0,0,0,0,0,1,1,1,1,1,1,1,1,1,1,1,1,1,1,1,1,1,1,1,1,1,1,1,1,1,1,1,1,1,1,1,1,1,0,0,0,0,0,0,0,0,0,0,0,0,1,1,1,1,1,1,1,1,1,1,1,1,1,1,1,1,1,1,1,1,1,1,1,1,1,1,1,1,1,1,1,1,1,0,0,0,0,0,0,0,0,0,0,1,1,1,1,1,1,1,1,1,1,1,1,1,1,1,1,1,1,1,1,1,1,1,1,1,1,1,1,1,1,1,1,1,1,1,0,1,1,0,0,0,0,0,0,1,1,1,1,1,1,1,1,1,1,1,1,1,1,1,1,1,1,1,1,1,1,1,1,1,1,1,1,1,1,1,1,1,1,1,1,1,1,1,1,1,1,1,1,1,1,1,1,1,1,1,1,1,1,1,1,1,1,1,1,1,1,1,1,1,1,1,1,1,1,1,1,1,1,1,1,1,1,1,1,1]},{"id":3,"name":"solid-footprints","type":"objectgroup","draworder":"topdown","opacity":1,"visible":false,"objects":[{"id":2014,"name":"estate_west","type":"solid-footprint","x":32,"y":128,"width":256,"height":160,"properties":[]},{"id":2015,"name":"estate_east","type":"solid-footprint","x":1088,"y":288,"width":256,"height":160,"properties":[]},{"id":2016,"name":"estate_south","type":"solid-footprint","x":576,"y":704,"width":224,"height":160,"properties":[]}]},{"id":4,"name":"spawns","type":"objectgroup","draworder":"topdown","opacity":1,"visible":false,"objects":[{"id":2000,"name":"spawn_milton","type":"spawn","x":48,"y":944,"properties":[]},{"id":2001,"name":"spawn_reidenbaugh","type":"spawn","x":1328,"y":112,"properties":[]}]},{"id":5,"name":"transitions","type":"objectgroup","draworder":"topdown","opacity":1,"visible":false,"objects":[{"id":2002,"name":"exit_milton","type":"transition","x":0,"y":864,"width":32,"height":160,"properties":[{"name":"destinationMap","type":"string","value":"neighborhood"},{"name":"destinationSpawn","type":"string","value":"spawn_stonehenge"}]},{"id":2003,"name":"exit_reidenbaugh","type":"transition","x":1312,"y":0,"width":128,"height":64,"properties":[{"name":"destinationMap","type":"string","value":"reidenbaugh"},{"name":"destinationSpawn","type":"string","value":"spawn_stonehenge"}]}]},{"id":6,"name":"interactions","type":"objectgroup","draworder":"topdown","opacity":1,"visible":false,"objects":[{"id":2004,"name":"stonehenge_gate","type":"landmark","x":112,"y":912,"properties":[]},{"id":2005,"name":"roundabout","type":"landmark","x":752,"y":560,"properties":[]},{"id":2006,"name":"stonehenge_lookout","type":"landmark","x":1168,"y":208,"properties":[]}]},{"id":7,"name":"navigation","type":"objectgroup","draworder":"topdown","opacity":1,"visible":false,"objects":[{"id":2007,"name":"stonehenge_route_00","type":"waypoint","x":112,"y":912,"properties":[]},{"id":2008,"name":"stonehenge_route_01","type":"waypoint","x":240,"y":816,"properties":[]},{"id":2009,"name":"stonehenge_route_02","type":"waypoint","x":368,"y":720,"properties":[]},{"id":2010,"name":"stonehenge_route_03","type":"waypoint","x":496,"y":624,"properties":[]},{"id":2017,"name":"stonehenge_route_04","type":"waypoint","x":592,"y":528,"properties":[]},{"id":2018,"name":"stonehenge_route_05","type":"waypoint","x":592,"y":432,"properties":[]},{"id":2019,"name":"stonehenge_route_06","type":"waypoint","x":688,"y":336,"properties":[]},{"id":2020,"name":"stonehenge_route_07","type":"waypoint","x":816,"y":304,"properties":[]},{"id":2021,"name":"stonehenge_route_08","type":"waypoint","x":944,"y":304,"properties":[]},{"id":2022,"name":"stonehenge_route_09","type":"waypoint","x":1040,"y":240,"properties":[]},{"id":2023,"name":"stonehenge_route_10","type":"waypoint","x":1168,"y":208,"properties":[]},{"id":2024,"name":"stonehenge_route_11","type":"waypoint","x":1296,"y":144,"properties":[]},{"id":2025,"name":"stonehenge_route_12","type":"waypoint","x":1360,"y":48,"properties":[]}]},{"id":8,"name":"qa-probes","type":"objectgroup","draworder":"topdown","opacity":1,"visible":false,"objects":[{"id":2011,"name":"qa_milton_route","type":"qa-probe","x":48,"y":944,"properties":[]},{"id":2012,"name":"qa_reidenbaugh_route","type":"qa-probe","x":1328,"y":112,"properties":[]},{"id":2013,"name":"qa_lookout","type":"qa-probe","x":1168,"y":208,"properties":[]}]}],"tilesets":[{"columns":45,"firstgid":1,"image":"stonehenge-master-v1.png","imageheight":1056,"imagewidth":1440,"margin":0,"name":"collision-grid","spacing":0,"tilecount":1485,"tileheight":32,"tilewidth":32}],"nextlayerid":9,"nextobjectid":2026}
